_src/static/img/icon/uniE901.svg

<svg width="1024" height="1024" viewBox="0 0 1024 1024" fill="none" xmlns="http://www.w3.org/2000/svg">
<rect width="1024" height="1024" fill="#F7F7F7"/>
<path d="M373 565C373 558.333 370.667 552.833 366 548.5C361.333 544.167 356 542 350 542H269C262.333 542 256.833 544.167 252.5 548.5C248.167 552.833 246 558.333 246 565V646C246 652.667 248.167 658.167 252.5 662.5C256.833 666.833 262.333 669 269 669H350C356 669 361.333 666.833 366 662.5C370.667 658.167 373 652.667 373 646V565ZM576 565C576 558.333 573.667 552.833 569 548.5C564.333 544.167 559 542 553 542H471C465 542 459.667 544.167 455 548.5C450.333 552.833 448 558.333 448 565V646C448 652.667 450.333 658.167 455 662.5C459.667 666.833 465 669 471 669H553C559 669 564.333 666.833 569 662.5C573.667 658.167 576 652.667 576 646V565ZM778 565C778 558.333 775.833 552.833 771.5 548.5C767.167 544.167 761.667 542 755 542H674C668 542 662.667 544.167 658 548.5C653.333 552.833 651 558.333 651 565V646C651 652.667 653.333 658.167 658 662.5C662.667 666.833 668 669 674 669H755C761.667 669 767.167 666.833 771.5 662.5C775.833 658.167 778 652.667 778 646V565ZM373 768C373 761.333 370.667 755.667 366 751C361.333 746.333 356 744 350 744H269C262.333 744 256.833 746.333 252.5 751C248.167 755.667 246 761.333 246 768V849C246 855 248.167 860.333 252.5 865C256.833 869.667 262.333 872 269 872H350C356 872 361.333 869.667 366 865C370.667 860.333 373 855 373 849V768ZM576 768C576 761.333 573.667 755.667 569 751C564.333 746.333 559 744 553 744H471C465 744 459.667 746.333 455 751C450.333 755.667 448 761.333 448 768V849C448 855 450.333 860.333 455 865C459.667 869.667 465 872 471 872H553C559 872 564.333 869.667 569 865C573.667 860.333 576 855 576 849V768ZM778 768C778 761.333 775.833 755.667 771.5 751C767.167 746.333 761.667 744 755 744H674C668 744 662.667 746.333 658 751C653.333 755.667 651 761.333 651 768V849C651 855 653.333 860.333 658 865C662.667 869.667 668 872 674 872H755C761.667 872 767.167 869.667 771.5 865C775.833 860.333 778 855 778 849V768ZM924 114V238C924 266 914 289.833 894 309.5C874 329.167 850 339 822 339H758C730 339 706 329.167 686 309.5C666 289.833 656 266 656 238V114H368V238C368 266 358 289.833 338 309.5C318 329.167 294 339 266 339H202C174 339 150 329.167 130 309.5C110 289.833 100 266 100 238V114C76 114.667 55.1667 123.833 37.5 141.5C19.8333 159.167 11 180.667 11 206V932C11 957.333 20 979 38 997C56 1015 77.6667 1024 103 1024H921C946.333 1024 968 1015 986 997C1004 979 1013 957.333 1013 932V206C1013 180.667 1004.17 159.167 986.5 141.5C968.833 123.833 948 114.667 924 114ZM894 886C894 897.333 890.167 906.833 882.5 914.5C874.833 922.167 865.333 926 854 926H168C157.333 926 148 922.167 140 914.5C132 906.833 128 897.333 128 886V511C128 500.333 132 491.167 140 483.5C148 475.833 157.333 472 168 472H854C865.333 472 874.833 475.833 882.5 483.5C890.167 491.167 894 500.333 894 511V886ZM202 273H265C274.333 273 282.5 269.5 289.5 262.5C296.5 255.5 300 247.333 300 238V35C300 25 296.5 16.6667 289.5 10C282.5 3.33333 274.333 0 265 0H202C192 0 183.667 3.33333 177 10C170.333 16.6667 167 25 167 35V238C167 247.333 170.333 255.5 177 262.5C183.667 269.5 192 273 202 273ZM757 273H821C830.333 273 838.333 269.5 845 262.5C851.667 255.5 855 247.333 855 238V35C855 25 851.667 16.6667 845 10C838.333 3.33333 830.333 0 821 0H757C747.667 0 739.667 3.33333 733 10C726.333 16.6667 723 25 723 35V238C723 247.333 726.333 255.5 733 262.5C739.667 269.5 747.667 273 757 273Z" fill="#999999"/>
</svg>

<!-- Generated by IcoMoon.io -->
<svg version="1.1" xmlns="http://www.w3.org/2000/svg" viewBox="0 0 1024 1024">
<title></title>
<g id="icomoon-ignore">
</g>
<path fill="#999" d="M373 565q0-10-7-16.5t-16-6.5h-81q-10 0-16.5 6.5t-6.5 16.5v81q0 10 6.5 16.5t16.5 6.5h81q9 0 16-6.5t7-16.5v-81zM576 565q0-10-7-16.5t-16-6.5h-82q-9 0-16 6.5t-7 16.5v81q0 10 7 16.5t16 6.5h82q9 0 16-6.5t7-16.5v-81zM778 565q0-10-6.5-16.5t-16.5-6.5h-81q-9 0-16 6.5t-7 16.5v81q0 10 7 16.5t16 6.5h81q10 0 16.5-6.5t6.5-16.5v-81zM373 768q0-10-7-17t-16-7h-81q-10 0-16.5 7t-6.5 17v81q0 9 6.5 16t16.5 7h81q9 0 16-7t7-16v-81zM576 768q0-10-7-17t-16-7h-82q-9 0-16 7t-7 17v81q0 9 7 16t16 7h82q9 0 16-7t7-16v-81zM778 768q0-10-6.5-17t-16.5-7h-81q-9 0-16 7t-7 17v81q0 9 7 16t16 7h81q10 0 16.5-7t6.5-16v-81zM924 114v124q0 42-30 71.5t-72 29.5h-64q-42 0-72-29.5t-30-71.5v-124h-288v124q0 42-30 71.5t-72 29.5h-64q-42 0-72-29.5t-30-71.5v-124q-36 1-62.5 27.5t-26.5 64.5v726q0 38 27 65t65 27h818q38 0 65-27t27-65v-726q0-38-26.5-64.5t-62.5-27.5v0zM894 886q0 17-11.5 28.5t-28.5 11.5h-686q-16 0-28-11.5t-12-28.5v-375q0-16 12-27.5t28-11.5h686q17 0 28.5 11.5t11.5 27.5v375zM202 273h63q14 0 24.5-10.5t10.5-24.5v-203q0-15-10.5-25t-24.5-10h-63q-15 0-25 10t-10 25v203q0 14 10 24.5t25 10.5v0zM757 273h64q14 0 24-10.5t10-24.5v-203q0-15-10-25t-24-10h-64q-14 0-24 10t-10 25v203q0 14 10 24.5t24 10.5z"></path>
</svg>
